symbols/web/crib/materialsymbolsrounded/crib_wght700grad200fill1_48px.svg

<svg xmlns="http://www.w3.org/2000/svg" height="48" width="48"><path d="M24 40.6q.9 0 1.725-.05.825-.05 1.725-.4v-8.2H20.6v8.2q.85.35 1.675.4.825.05 1.725.05Zm0 4.55q-3.3 0-6.625-1.125T11.05 40.75q-.9-.6-.9-1.675 0-1.075.85-1.925.5-.45 1.325-.5.825-.05 1.525.35.4.4.975.775t1.225.625v-6.45h-4.7q-1.9 0-3.225-1.325Q6.8 29.3 6.8 27.35v-12.3q0-3.8 2.7-6.55T16 5.75h4.35q1.8 0 3.2 1.4 1.4 1.4 1.4 3.2v5.4H36.7q1.85 0 3.2 1.35t1.35 3.25v7q0 1.95-1.35 3.275t-3.2 1.325H32v6.45q.6-.25 1.175-.6.575-.35 1.075-.75.6-.45 1.45-.4.85.05 1.45.55.75.85.725 1.9-.025 1.05-.875 1.65-3 2.15-6.35 3.275Q27.3 45.15 24 45.15Z"/></svg>

<svg xmlns="http://www.w3.org/2000/svg" height="48" width="48"><path d="M24 40.6Q24.9 40.6 25.725 40.55Q26.55 40.5 27.45 40.15V31.95H20.6V40.15Q21.45 40.5 22.275 40.55Q23.1 40.6 24 40.6ZM24 45.15Q20.7 45.15 17.375 44.025Q14.05 42.9 11.05 40.75Q10.15 40.15 10.15 39.075Q10.15 38 11 37.15Q11.5 36.7 12.325 36.65Q13.15 36.6 13.85 37Q14.25 37.4 14.825 37.775Q15.4 38.15 16.05 38.4V31.95H11.35Q9.45 31.95 8.125 30.625Q6.8 29.3 6.8 27.35V15.05Q6.8 11.25 9.5 8.5Q12.2 5.75 16 5.75H20.35Q22.15 5.75 23.55 7.15Q24.95 8.55 24.95 10.35V15.75H36.7Q38.55 15.75 39.9 17.1Q41.25 18.45 41.25 20.35V27.35Q41.25 29.3 39.9 30.625Q38.55 31.95 36.7 31.95H32V38.4Q32.6 38.15 33.175 37.8Q33.75 37.45 34.25 37.05Q34.85 36.6 35.7 36.65Q36.55 36.7 37.15 37.2Q37.9 38.05 37.875 39.1Q37.85 40.15 37 40.75Q34 42.9 30.65 44.025Q27.3 45.15 24 45.15Z"/></svg>
